X: 12
T:Hills Of Coromandel, The
M:4/4
L:1/4
Q:60
C:Dave Jordan
K:ADor
e/|"Am"ea<ab|"Em"ef<ge|"E"e>dcB|"Am"c<A-A>e|
"Am"ea<ab|!
"Em"ef<ge|"E"e>dcB|"Am"c<A-A2|
"Dm"BB=f>f|"Am"ec<A-A|
"Dm"BBg>=f|!
ed"E"e>e|
"Am"ea<ae|"Dm"gf<"Am"=fA|
"Em"Bc<dB|"Am"c<dee/e/|!
"Dm"=f<dBf|ecAA/A/|
"Em"B4-|"E"B2z/E/ E/E/|"Am"B<A-A2|z4|z4|z3z/:||
